austria/municipalities/70208.svg

<?xml version="1.0" encoding="UTF-8"?>
<!DOCTYPE svg PUBLIC "-//W3C//DTD SVG 1.1//EN" "http://www.w3.org/Graphics/SVG/1.1/DTD/svg11.dtd">
<svg xmlns="http://www.w3.org/2000/svg" version="1.1" width="166px" height="192px" style="shape-rendering:geometricPrecision; text-rendering:geometricPrecision; image-rendering:optimizeQuality; fill-rule:evenodd; clip-rule:evenodd" xmlns:xlink="http://www.w3.org/1999/xlink">
<g><path style="opacity:1" fill="#1c1412" d="M -0.5,-0.5 C 54.8333,-0.5 110.167,-0.5 165.5,-0.5C 165.5,39.1667 165.5,78.8333 165.5,118.5C 157.367,159.633 132.7,183.966 91.5,191.5C 84.8333,191.5 78.1667,191.5 71.5,191.5C 30.4766,182.81 6.47657,157.81 -0.5,116.5C -0.5,77.5 -0.5,38.5 -0.5,-0.5 Z"/></g>
<g><path style="opacity:1" fill="#f8f8f7" d="M 3.5,3.5 C 9.83333,3.5 16.1667,3.5 22.5,3.5C 22.6667,55.5011 22.5,107.501 22,159.5C 11.5336,147.118 5.53364,132.785 4,116.5C 3.50001,78.8348 3.33335,41.1681 3.5,3.5 Z"/></g>
<g><path style="opacity:1" fill="#d73023" d="M 41.5,3.5 C 41.8324,61.0024 41.499,118.336 40.5,175.5C 34.2857,171.795 28.7857,167.128 24,161.5C 23.5,108.834 23.3333,56.1677 23.5,3.5C 29.5,3.5 35.5,3.5 41.5,3.5 Z"/></g>
<g><path style="opacity:1" fill="#7c261a" d="M 41.5,3.5 C 42.8314,61.0014 42.8314,118.668 41.5,176.5C 40.8933,176.376 40.56,176.043 40.5,175.5C 41.499,118.336 41.8324,61.0024 41.5,3.5 Z"/></g>
<g><path style="opacity:1" fill="#f9f8f8" d="M 43.5,3.5 C 49.8333,3.5 56.1667,3.5 62.5,3.5C 62.5,63.8333 62.5,124.167 62.5,184.5C 55.9416,183.258 49.775,180.924 44,177.5C 43.5,119.501 43.3333,61.501 43.5,3.5 Z"/></g>
<g><path style="opacity:1" fill="#d33023" d="M 63.5,3.5 C 69.8333,3.5 76.1667,3.5 82.5,3.5C 82.5,64.8333 82.5,126.167 82.5,187.5C 76.3853,187.732 70.3853,187.066 64.5,185.5C 63.5,124.837 63.1667,64.1703 63.5,3.5 Z"/></g>
<g><path style="opacity:1" fill="#fefefe" d="M 83.5,3.5 C 89.5,3.5 95.5,3.5 101.5,3.5C 101.5,64.1667 101.5,124.833 101.5,185.5C 95.5593,186.634 89.5593,187.301 83.5,187.5C 83.5,126.167 83.5,64.8333 83.5,3.5 Z"/></g>
<g><path style="opacity:1" fill="#d73023" d="M 103.5,3.5 C 109.5,3.5 115.5,3.5 121.5,3.5C 121.667,61.501 121.5,119.501 121,177.5C 115.657,181.089 109.823,183.423 103.5,184.5C 103.5,124.167 103.5,63.8333 103.5,3.5 Z"/></g>
<g><path style="opacity:1" fill="#413e3c" d="M 123.5,3.5 C 123.168,61.0024 123.501,118.336 124.5,175.5C 124.44,176.043 124.107,176.376 123.5,176.5C 122.169,118.668 122.169,61.0014 123.5,3.5 Z"/></g>
<g><path style="opacity:1" fill="#fefefe" d="M 123.5,3.5 C 129.5,3.5 135.5,3.5 141.5,3.5C 141.667,56.501 141.5,109.501 141,162.5C 135.912,167.429 130.412,171.762 124.5,175.5C 123.501,118.336 123.168,61.0024 123.5,3.5 Z"/></g>
<g><path style="opacity:1" fill="#d73023" d="M 143.5,3.5 C 149.5,3.5 155.5,3.5 161.5,3.5C 161.667,41.8348 161.5,80.1681 161,118.5C 159.157,133.513 153.49,146.846 144,158.5C 143.5,106.834 143.333,55.1677 143.5,3.5 Z"/></g>
<g><path style="opacity:1" fill="#fdfdfd" d="M -0.5,116.5 C 6.47657,157.81 30.4766,182.81 71.5,191.5C 47.5,191.5 23.5,191.5 -0.5,191.5C -0.5,166.5 -0.5,141.5 -0.5,116.5 Z"/></g>
<g><path style="opacity:1" fill="#fcfcfc" d="M 165.5,118.5 C 165.5,142.833 165.5,167.167 165.5,191.5C 140.833,191.5 116.167,191.5 91.5,191.5C 132.7,183.966 157.367,159.633 165.5,118.5 Z"/></g>
</svg>

<svg xmlns="http://www.w3.org/2000/svg" width="166" height="192" style="shape-rendering:geometricPrecision;text-rendering:geometricPrecision;image-rendering:optimizeQuality;fill-rule:evenodd;clip-rule:evenodd"><path style="opacity:1" fill="#1c1412" d="M-.5-.5h166v119c-8.133 41.133-32.8 65.466-74 73h-20c-41.023-8.69-65.023-33.69-72-75V-.5z"/><path style="opacity:1" fill="#f8f8f7" d="M3.5 3.5h19c.167 52.001 0 104.001-.5 156-10.466-12.382-16.466-26.715-18-43-.5-37.665-.667-75.332-.5-113z"/><path style="opacity:1" fill="#d73023" d="M41.5 3.5a7396.42 7396.42 0 0 1-1 172c-6.214-3.705-11.714-8.372-16.5-14-.5-52.666-.667-105.332-.5-158h18z"/><path style="opacity:1" fill="#7c261a" d="M41.5 3.5a3747.05 3747.05 0 0 1 0 173c-.607-.124-.94-.457-1-1a7396.42 7396.42 0 0 0 1-172z"/><path style="opacity:1" fill="#f9f8f8" d="M43.5 3.5h19v181a56.696 56.696 0 0 1-18.5-7c-.5-57.999-.667-115.999-.5-174z"/><path style="opacity:1" fill="#d33023" d="M63.5 3.5h19v184a60.667 60.667 0 0 1-18-2c-1-60.663-1.333-121.33-1-182z"/><path style="opacity:1" fill="#fefefe" d="M83.5 3.5h18v182a116.195 116.195 0 0 1-18 2V3.5z"/><path style="opacity:1" fill="#d73023" d="M103.5 3.5h18c.167 58.001 0 116.001-.5 174-5.343 3.589-11.177 5.923-17.5 7V3.5z"/><path style="opacity:1" fill="#413e3c" d="M123.5 3.5a7398.64 7398.64 0 0 0 1 172c-.06.543-.393.876-1 1a3748.175 3748.175 0 0 1 0-173z"/><path style="opacity:1" fill="#fefefe" d="M123.5 3.5h18c.167 53.001 0 106.001-.5 159a102.025 102.025 0 0 1-16.5 13 7398.64 7398.64 0 0 1-1-172z"/><path style="opacity:1" fill="#d73023" d="M143.5 3.5h18c.167 38.335 0 76.668-.5 115-1.843 15.013-7.51 28.346-17 40-.5-51.666-.667-103.332-.5-155z"/><path style="opacity:1" fill="#fdfdfd" d="M-.5 116.5c6.977 41.31 30.977 66.31 72 75h-72v-75z"/><path style="opacity:1" fill="#fcfcfc" d="M165.5 118.5v73h-74c41.2-7.534 65.867-31.867 74-73z"/></svg>
